Obsidian/places/16s/user-trash-symbolic.svg

<svg height="16" width="16.000002" xmlns="http://www.w3.org/2000/svg"><path d="m5 0c-.554 0-1 .446-1 1v1h-2c-.554 0-1 .446-1 1v1h13v-1c0-.554-.446-1-1-1h-2v-1c0-.554-.446-1-1-1zm1 1h3v1h-3zm-4 4v9.5c0 .831.669 1.5 1.5 1.5h8c.831 0 1.5-.669 1.5-1.5v-9.5zm2.5 2c.277 0 .5.223.5.5v6c0 .277-.223.5-.5.5s-.5-.223-.5-.5v-6c0-.277.223-.5.5-.5zm2 0c.277 0 .5.223.5.5v6c0 .277-.223.5-.5.5s-.5-.223-.5-.5v-6c0-.277.223-.5.5-.5zm2 0c.277 0 .5.223.5.5v6c0 .277-.223.5-.5.5s-.5-.223-.5-.5v-6c0-.277.223-.5.5-.5zm2 0c.277 0 .5.223.5.5v6c0 .277-.223.5-.5.5s-.5-.223-.5-.5v-6c0-.277.223-.5.5-.5z" fill="#bebebe"/></svg>

<?xml version="1.0" encoding="UTF-8" standalone="no"?>
<!-- Created with Inkscape (http://www.inkscape.org/) -->

<svg
   xmlns:dc="http://purl.org/dc/elements/1.1/"
   xmlns:cc="http://creativecommons.org/ns#"
   xmlns:rdf="http://www.w3.org/1999/02/22-rdf-syntax-ns#"
   xmlns:svg="http://www.w3.org/2000/svg"
   xmlns="http://www.w3.org/2000/svg"
   xmlns:sodipodi="http://sodipodi.sourceforge.net/DTD/sodipodi-0.dtd"
   xmlns:inkscape="http://www.inkscape.org/namespaces/inkscape"
   id="svg7384"
   version="1.1"
   inkscape:version="0.48.1 r9760"
   height="16"
   sodipodi:docname="user-trash-symbolic.svg"
   width="16.000002">
  <metadata
     id="metadata90">
    <rdf:RDF>
      <cc:Work
         rdf:about="">
        <dc:format>image/svg+xml</dc:format>
        <dc:type
           rdf:resource="http://purl.org/dc/dcmitype/StillImage" />
        <dc:title>Gnome Symbolic Icon Theme</dc:title>
      </cc:Work>
    </rdf:RDF>
  </metadata>
  <sodipodi:namedview
     inkscape:cy="11.357933"
     inkscape:current-layer="layer13"
     inkscape:window-width="1310"
     pagecolor="#555753"
     showborder="false"
     showguides="true"
     inkscape:snap-nodes="true"
     objecttolerance="10"
     showgrid="true"
     inkscape:object-nodes="true"
     inkscape:pageshadow="2"
     inkscape:guide-bbox="true"
     inkscape:window-x="54"
     inkscape:snap-bbox="true"
     bordercolor="#666666"
     id="namedview88"
     inkscape:window-maximized="0"
     inkscape:snap-global="true"
     inkscape:window-y="25"
     gridtolerance="10"
     inkscape:zoom="15.622585"
     inkscape:window-height="690"
     borderopacity="1"
     guidetolerance="10"
     inkscape:cx="-4.7929077"
     inkscape:bbox-paths="false"
     inkscape:snap-grids="true"
     inkscape:pageopacity="1"
     inkscape:snap-to-guides="true">
    <inkscape:grid
       visible="true"
       spacingx="1px"
       type="xygrid"
       spacingy="1px"
       id="grid4866"
       empspacing="2"
       enabled="true"
       snapvisiblegridlinesonly="true" />
  </sodipodi:namedview>
  <title
     id="title9167">Gnome Symbolic Icon Theme</title>
  <defs
     id="defs7386" />
  <g
     transform="translate(-482,-176)"
     inkscape:groupmode="layer"
     id="layer9"
     inkscape:label="status"
     style="display:inline" />
  <g
     transform="translate(-482,-176)"
     inkscape:groupmode="layer"
     id="layer10"
     inkscape:label="devices" />
  <g
     transform="translate(-482,-176)"
     inkscape:groupmode="layer"
     id="layer11"
     inkscape:label="apps" />
  <g
     transform="translate(-482,-176)"
     inkscape:groupmode="layer"
     id="layer12"
     inkscape:label="actions" />
  <g
     transform="translate(-482,-176)"
     inkscape:groupmode="layer"
     id="layer13"
     inkscape:label="places">
    <g
       transform="translate(254.0002,-820)"
       id="g40072"
       inkscape:label="folder-remote" />
    <path
       style="color:#000000;fill:#bebebe;fill-opacity:1;fill-rule:nonzero;stroke:none;stroke-width:1.5;marker:none;visibility:visible;display:inline;overflow:visible;enable-background:accumulate"
       d="M 5,0 C 4.446,0 4,0.446 4,1 L 4,2 2,2 C 1.446,2 1,2.446 1,3 L 1,4 14,4 14,3 C 14,2.446 13.554,2 13,2 L 11,2 11,1 C 11,0.446 10.554,0 10,0 z M 6,1 9,1 9,2 6,2 z M 2,5 2,14.5 C 2,15.331 2.669,16 3.5,16 l 8,0 C 12.331,16 13,15.331 13,14.5 L 13,5 z M 4.5,7 C 4.777,7 5,7.223 5,7.5 l 0,6 C 5,13.777 4.777,14 4.5,14 4.223,14 4,13.777 4,13.5 l 0,-6 C 4,7.223 4.223,7 4.5,7 z m 2,0 C 6.777,7 7,7.223 7,7.5 l 0,6 C 7,13.777 6.777,14 6.5,14 6.223,14 6,13.777 6,13.5 l 0,-6 C 6,7.223 6.223,7 6.5,7 z m 2,0 C 8.777,7 9,7.223 9,7.5 l 0,6 C 9,13.777 8.777,14 8.5,14 8.223,14 8,13.777 8,13.5 l 0,-6 C 8,7.223 8.223,7 8.5,7 z m 2,0 C 10.777,7 11,7.223 11,7.5 l 0,6 C 11,13.777 10.777,14 10.5,14 10.223,14 10,13.777 10,13.5 l 0,-6 C 10,7.223 10.223,7 10.5,7 z"
       transform="translate(482,176)"
       id="rect2993"
       inkscape:connector-curvature="0"
       sodipodi:nodetypes="sscssccsscssscccccccsscccssssssssssssssssssssssssssss" />
  </g>
  <g
     transform="translate(-482,-176)"
     inkscape:groupmode="layer"
     id="layer14"
     inkscape:label="mimetypes" />
  <g
     transform="translate(-482,-176)"
     inkscape:groupmode="layer"
     id="layer15"
     inkscape:label="emblems"
     style="display:inline" />
</svg>
